X: 782
T: Gece Sahilden Açıp Sandalı
C: Şerif İçli
O: Turkey
F: http://compmusic.upf.edu/node/140
N: nihavent--sarki--aksak--gece_sahilden--serif_icli
N: makam= nihavent
N: form= sarki
N: usul= aksak = 9/8
M: 9/8
L: 1/16
K: C _B _e  
Q: 1/4=120
%%MIDI tuningsystem comma53
G3A B2c2 d2e2 ^f2g2 a2 | ^fg abag gffe edd4z2  | 
w:  ARANAĞME  |   | 
g3^f e2g2 f3e d4 =f2 | e3dc4=Bc dBc6  | \
w:   |   | 
BABc dcde f=ef_a gf_ed cB | 
w:   | 
AB cedc BAAG G^FG4z2  | G3A B2c2 d2e2 ^f2g2 a2 | 
w:   |  ARANAĞME  | 
^fg abag gffe edd4z2  | g3^f e2g2 f3e d4 =f2 | 
w:   |   | 
e3dc4=Bc dBc6  | BABc dcde f=ef_a gf_ed cB | 
w:   |   | 
AB cedc BAAG G^FG4z2  | z4 G2d2 d4 dedg fe | 
w:   |  Ge ce  sa hil  | 
d2 cBc2 d2d4dc cdcB  | c2BA B2c2 d3g fedc BA | 
w:  *  *  *  den_ a çıp  san  |  *  *  *  da lı  en *  gin  | 
G4d2 edd4de dcBA  | G4 G2d2 d4 dedg fe | 
w:  *  le re  *  biz   SAZ  |  *  Ge ce  sa hil  | 
d2 cBc2 d2d4d2 _1/4e2f2  | fedc d2e2 f2g2 abag gf | 
w:  *  *  *  den_ a çıp  san  |  *  *  *  *  da lı  en *  gin  | 
fe dgfe edd4de dcBc  | d4 d2_1/4e2 f4 fefb b_a | 
w:  *  *  *  *  le *  re  *  biz   SAZ  |  *  U yu yan  Mar  | 
_ag gffe edd2 cBc2 d2cB  | B4 c2d2 d4 dedc BA | 
w:  *  *  *  *  ma *  ra *  nın  *  *  koy  |  *  nu na  gir sek   | 
G4A2 _1/4B2c4c_B ABAB  | c4 cBAB cdeg fedc BA | 
w:  *  i ki miz   SAZ  |  *  U *  *  yu yan  *  *  *  Mar  | 
G4A2 BAA3dcB AG^FE  | D4 E2^F2 G2A2 B4 BA | \
w:  *  ma ra *  nın  *  koy  |  *  nu na  gir *  sek   | 
A3GBA G^FG4ab aggf  | 
w:  *  *  i *  ki *  miz   SAZ  | 
g3/2f/ed c2c2 g4 abag ga | gf f2g2 a2ba gagf fgfe  | 
w:  *  *  *  *  Ö pü şür ken   |  *  *  *  i ki  â *  *  *  şık   | 
d2c2 d2e2 g4 fgfe de | fa gffe edd4ab aggf  | 
w:  *  *  gi bi  meh tap  |  *  *  *  *  la  *  de *  niz   SAZ  | 
g3/2f/ed c2c2 g4 abag ga | gf f2g2 a2b3/2a/ gagf fgfe  | 
w:  *  *  *  *  Ö pü şür ken   |  *  *  *  i ki  â *  *  *  şık   | 
d2c2 d2e2 f2g2 abag gf | fe dgfe edd4de dcBc  | 
w:  *  *  gi bi  meh *  tap  |  *  *  *  *  la  *  de *  niz   SAZ  | 
d4 d2_1/4e2 f4 fefb b_a | _ag gffe edd2 cBc2 d2cB  | 
w:  *  U yu yan  Mar  |  *  *  *  *  ma *  ra *  nın  *  *  koy  | 
B4 c2d2 d4 dedc BA | G4A2 _1/4B2c4c_B ABAB  | \
w:  *  nu na  gir sek   |  *  i ki miz   SAZ  | 
c4 cBAB cdeg fedc BA | 
w:  *  U *  *  yu yan  *  *  *  Mar  | 
G4A2 BAA3dcB AG^FE  | D4 E2^F2 G2A2 B4 BA | \
w:  *  ma ra *  nın  *  koy  |  *  nu na  gir *  sek   | 
A3GBA G^FG8-G2  | 
w:  *  KARAR  | 
|


